Tizora/dist/assets/img/contacts/contacts-location-icon.svg

<svg width="33" height="41" viewBox="0 0 33 41" fill="none" xmlns="http://www.w3.org/2000/svg">
<path d="M11.875 16.4C11.875 18.934 13.958 21 16.5 21C19.042 21 21.125 18.934 21.125 16.4C21.125 13.866 19.042 11.8 16.5 11.8C13.958 11.8 11.875 13.866 11.875 16.4ZM0.5 16.81C0.5 6.89526 8.09517 0.5 16.5 0.5C24.9048 0.5 32.5 6.89526 32.5 16.81C32.5 20.0774 31.1772 23.6952 28.4594 27.6776C25.7965 31.5795 21.8149 35.8009 16.5 40.3433C11.1851 35.8009 7.20347 31.5795 4.54057 27.6776C1.82276 23.6952 0.5 20.0774 0.5 16.81Z" stroke="white"/>
</svg>

<svg width="33" height="41" fill="none" xmlns="http://www.w3.org/2000/svg"><path d="M11.875 16.4c0 2.534 2.083 4.6 4.625 4.6s4.625-2.066 4.625-4.6-2.083-4.6-4.625-4.6-4.625 2.066-4.625 4.6zM.5 16.81C.5 6.895 8.095.5 16.5.5c8.405 0 16 6.395 16 16.31 0 3.267-1.323 6.885-4.04 10.868-2.663 3.901-6.645 8.123-11.96 12.665-5.315-4.542-9.297-8.764-11.96-12.665C1.824 23.695.5 20.078.5 16.81z" stroke="#fff"/></svg>
